X: 1019
T: Mrs Casey **
M: 6/8
R: Jig
K: Em
"C (Am)"G2E EGE|"G"D2E D2B,|"G (C)"DEG "G/B (C)"A2B|"C"c2c "C/E"cBA|
"C (Am)"G2E "D7"EGE|"G/B (C)"D2E D2B,|"C"DEG "D"A2B|1"G"G3 G2:|2"G"G3-G2D||
"G"G2A B2c|"G/F#"d3 dBA|"G/E"GAB ABc|"G/D"d3 -dBd|"C"e2e "G/B"d2B|"Am"cBA "G/B"B2G|
"C"E2E "G/B"EFE|"Am"c3-"D"cBA|"C"G2E "D7"EGE|"G/B"D2E D2B,|"C"DEG "G/B"A2B|
"C"c2c "C/E"cBA|"C"G2E EGE|"G/B"D2E D2B,|"C" DEG "D"ABA|"G"G3-G3|]

